svgs/thin/square-b.svg

<svg xmlns="http://www.w3.org/2000/svg" viewBox="0 0 448 512"><!-- Font Awesome Pro 6.0.0-alpha2 by @fontawesome - https://fontawesome.com License - https://fontawesome.com/license (Commercial License) --><path d="M384 32H64C28.654 32 0 60.654 0 96V416C0 451.346 28.654 480 64 480H384C419.346 480 448 451.346 448 416V96C448 60.654 419.346 32 384 32ZM432 416C432 442.467 410.467 464 384 464H64C37.533 464 16 442.467 16 416V96C16 69.533 37.533 48 64 48H384C410.467 48 432 69.533 432 96V416ZM276.541 250.27C293.111 237.857 304 218.252 304 196C304 158.5 273.5 128 236 128H136C131.578 128 128 131.578 128 136V376C128 380.422 131.578 384 136 384H260C297.5 384 328 353.5 328 316C328 284.236 306.023 257.705 276.541 250.27ZM144 144H236C264.672 144 288 167.328 288 196S264.672 248 236 248H144V144ZM260 368H144V264H260C288.672 264 312 287.328 312 316S288.672 368 260 368Z"/></svg>

<svg xmlns="http://www.w3.org/2000/svg" viewBox="0 0 448 512"><!--! Font Awesome Pro 6.3.0 by @fontawesome - https://fontawesome.com License - https://fontawesome.com/license (Commercial License) Copyright 2023 Fonticons, Inc. --><path d="M384 32H64C28.65 32 0 60.65 0 96v320c0 35.35 28.65 64 64 64h320c35.35 0 64-28.65 64-64V96C448 60.65 419.3 32 384 32zM432 416c0 26.47-21.53 48-48 48H64c-26.47 0-48-21.53-48-48V96c0-26.47 21.53-48 48-48h320c26.47 0 48 21.53 48 48V416zM276.5 250.3C293.1 237.9 304 218.3 304 196C304 158.5 273.5 128 236 128H136C131.6 128 128 131.6 128 136v240C128 380.4 131.6 384 136 384h124c37.5 0 68-30.5 68-68C328 284.2 306 257.7 276.5 250.3zM144 144h92C264.7 144 288 167.3 288 196S264.7 248 236 248H144V144zM260 368H144V264h116c28.67 0 52 23.33 52 52S288.7 368 260 368z"/></svg>
